X: 39028
T: Swan, The
R: hornpipe
M: 4/4
K: Gmajor
|:(3DEF|G2 AG dGBd|~g2 fg (3efg dB|c2 ec (3Bcd GB|ADFA dB (3cBA|
G2 AG DGBd|g2 gf gdBG|c2 ec (3Bcd GB|ADFA G2:|
|:(3Bcd|gBdg fAce|ecAG ADFA|GBdB ceag|(3fga e^c d2 ef|
gBdg fAce|ecAG ADFA|GBdB ceag|(3fed (3cBA G2:|

